X: 132
T: Teraz, o wierni Pańscy służebnicy,
C: Mikołaj Gomółka
%%abc-version 2.0
%%abcx-abcm2ps-target-version 5.9.1 (29 Sep 2008)
%%abc-creator hum2abc beta
%%abcx-conversion-date 2021/10/04 07:59:09
%%abc-edited-by Anna Matuszewska
%%abcx-initial-encoding-date 2020-02-22
%%humdrum-veritas 1813107321
%%humdrum-veritas-data 305834305
%%linebreak <none>
%%barnumbers 0
L: 1/4
M: C|
N: Derived from pl-wn--sd-xvi-qu-273--134_gomolka-mikolaj--teraz-o-wierni-panscy-sluzebnicy.krn
%%staves [1 2 3 4]
V: 1
V: 2 clef=alto
V: 3 clef=alto
V: 4
K: C
[V:1] B4B2d2 | 
[V:2] G4G2D2 | 
[V:3] B,4B,2B,2 | 
[V:4] G,4G,2G,2 [|] 
[V:1] c2>B2A2G2 | 
[V:2] E2F2F2GF | 
[V:3] C2C2>A,2B,2 | 
[V:4] C,2F,2F,2E,2 [|] 
[V:1] AGG4F2 | 
[V:2] EDC2D3C | 
[V:3] CB,B,A,/G,/A,4 | 
[V:4] C,2E,2D,4 [|] 
[V:1] G2 | 
[V:2] B,2 | 
[V:3] G,2 | 
[V:4] G,2 | 
[V:1] E2E2G2 [I:setbarnb 5]| 
[V:2] GFEDC2 | 
[V:3] C2C2G,2 | 
[V:4] C,2C,2E,2 [|] 
[V:1] F2>E2D2D2 | 
[V:2] D2>C2B,A,G,2 | 
[V:3] A,2A,2B,2B,3 | 
[V:4] D,2D,2G,3F, [|] 
[V:1] E2^F4F2 | 
[V:2] G,2A,4A,2 | 
[V:3] CD4D2 | 
[V:4] E,2D,4D,2 [|] 
[V:1] G2c4B2 | 
[V:2] B,2G4G2 | 
[V:3] D2E4DE | 
[V:4] G,2C,4G,2 [|] 
[V:1] d2>c2BAG2 | 
[V:2] A2G2G3F | 
[V:3] FED2G,2G,2 | 
[V:4] D,2G,2>F,2E,D, [|] 
[V:1] c2>B2A2A2 | 
[V:2] E2F4F2 | 
[V:3] G,2A,2>G,2A,B, | 
[V:4] C,2F,4F,2 [|] 
[V:1] G8 |]  
[V:2] E8 |]  
[V:3] C8 |]  
[V:4] C,8 | 


